!!!OTL: MARIANDEL IST SO SCHOEN
!!!ARE: Europa, Mitteleuropa, Deutschland
!!!SCT: F1122
!!!YEM: Copyright 1995, estate of Helmut Schaffrath.
**kern
*ICvox
*Ivox
*M2/4
*k[]
*C:
{8G
=1
8G
8G
8A
8B
=2
4c
8r}
{8G
=3
8G
8A
8B
8c
=4
4c#
8d}
{8d
=5
8d
8c#
8d
8e
=6
8f
8e
8d}
{8c
=7
8B
8G
8A
8B
=8
4c
8r}
{8c
=9
8c
8B
8A
8G
=10
8F#
8G
8A}
{8F#
=11
8G
8A
8B
8c
=12
4c#
8d}
{8d
=13
8c
8B
8A
8G
=14
8F#
8G
8A}
{8F#
=15
8G
8B
8A
8d
=16
4G
8r}
{8G
=17
8G
8G
8A
8B
=18
4c
8r}
{8G
=19
8G
8A
8B
8c
=20
4c#
8d}
{8d
=21
8d
8c#
8d
8e
=22
8f
8e
8d}
{8c
=23
8B
8G
8A
8B
=24
4c
8r}
{8g
=25
8g
8B
8B
8B
=26
4c
8r}
{8g
=27
8g
8B
8B
8B
=28
4c
8r}
==
!!!AGN: Liebes - Lied
!!!ONB: ESAC (Essen Associative Code) Database: FINK
!!!AMT: simple duple
!!!AIN: vox
!!!EED: Helmut Schaffrath
!!!EEV: 1.0
*-
